X: 19
T: Rawty
T: for two
C: Richard Schweitzer, CC BY-NC-SA 3.0
P: AABC
N: Permission granted to copy within the SCA.
K: F major
M: 6/8
L: 1/8
P: A
"^Drone F/C"F3 C2C | D2E F3 | GGG GF2 | G2A B3 | A2B AG2 | F6 :| 
P: B
G2G G2F | E2F G3 | F2F GAB | A6 | G2G G2F | E2F G3 | c2A BAG | F6 || 
P: C
G2G G2A | B2A G3 | G2G G2A | B2A G3 | c2A BAG | F3 |] 

